lib/healthicons/icons/outline/typography/8.svg

<svg fill="none" height="48" viewBox="0 0 48 48" width="48" xmlns="http://www.w3.org/2000/svg"><path clip-rule="evenodd" d="m35 18c0-4.986-4.0593-9-9.0321-9h-3.9358c-4.9728 0-9.0321 4.014-9.0321 9 0 2.3085.8718 4.4104 2.2998 6-1.428 1.5896-2.2998 3.6915-2.2998 6 0 4.986 4.0593 9 9.0321 9h3.9358c4.9728 0 9.0321-4.014 9.0321-9 0-2.3085-.8717-4.4104-2.2998-6 1.4281-1.5896 2.2998-3.6915 2.2998-6zm-9.0321-7c3.8791 0 7.0321 3.1294 7.0321 7 0 2.0924-.9193 3.9657-2.3794 5.2488-.2161.1899-.34.4636-.34.7512s.1239.5613.34.7512c1.4601 1.2831 2.3794 3.1564 2.3794 5.2488 0 3.8706-3.153 7-7.0321 7h-3.9358c-3.879 0-7.0321-3.1294-7.0321-7 0-2.0924.9193-3.9657 2.3795-5.2488.2161-.1899.3399-.4636.3399-.7512s-.1238-.5613-.3399-.7512c-1.4602-1.2831-2.3795-3.1564-2.3795-5.2488 0-3.8706 3.1531-7 7.0321-7zm0 4c1.6889 0 3.0321 1.3575 3.0321 3s-1.3432 3-3.0321 3h-3.9358c-1.6889 0-3.0321-1.3575-3.0321-3s1.3432-3 3.0321-3zm5.0321 3c0-2.7556-2.2471-5-5.0321-5h-3.9358c-2.7849 0-5.0321 2.2444-5.0321 5s2.2472 5 5.0321 5h3.9358c2.785 0 5.0321-2.2444 5.0321-5zm-5.0321 9c1.6889 0 3.0321 1.3575 3.0321 3s-1.3432 3-3.0321 3h-3.9358c-1.6889 0-3.0321-1.3575-3.0321-3s1.3432-3 3.0321-3zm5.0321 3c0-2.7556-2.2471-5-5.0321-5h-3.9358c-2.7849 0-5.0321 2.2444-5.0321 5s2.2472 5 5.0321 5h3.9358c2.785 0 5.0321-2.2444 5.0321-5z" fill="#333" fill-rule="evenodd"/></svg>

<svg width="48" height="48" viewBox="0 0 48 48" fill="none" xmlns="http://www.w3.org/2000/svg">
<path fill-rule="evenodd" clip-rule="evenodd" d="M35 18C35 13.014 30.9407 9 25.9679 9H22.0321C17.0593 9 13 13.014 13 18C13 20.3085 13.8718 22.4104 15.2998 24C13.8718 25.5896 13 27.6915 13 30C13 34.986 17.0593 39 22.0321 39H25.9679C30.9407 39 35 34.986 35 30C35 27.6915 34.1283 25.5896 32.7002 24C34.1283 22.4104 35 20.3085 35 18ZM25.9679 11C29.847 11 33 14.1294 33 18C33 20.0924 32.0807 21.9657 30.6206 23.2488C30.4045 23.4387 30.2806 23.7124 30.2806 24C30.2806 24.2876 30.4045 24.5613 30.6206 24.7512C32.0807 26.0343 33 27.9076 33 30C33 33.8706 29.847 37 25.9679 37H22.0321C18.1531 37 15 33.8706 15 30C15 27.9076 15.9193 26.0343 17.3795 24.7512C17.5956 24.5613 17.7194 24.2876 17.7194 24C17.7194 23.7124 17.5956 23.4387 17.3795 23.2488C15.9193 21.9657 15 20.0924 15 18C15 14.1294 18.1531 11 22.0321 11H25.9679ZM25.9679 15C27.6568 15 29 16.3575 29 18C29 19.6425 27.6568 21 25.9679 21H22.0321C20.3432 21 19 19.6425 19 18C19 16.3575 20.3432 15 22.0321 15H25.9679ZM31 18C31 15.2444 28.7529 13 25.9679 13H22.0321C19.2472 13 17 15.2444 17 18C17 20.7556 19.2472 23 22.0321 23H25.9679C28.7529 23 31 20.7556 31 18ZM25.9679 27C27.6568 27 29 28.3575 29 30C29 31.6425 27.6568 33 25.9679 33H22.0321C20.3432 33 19 31.6425 19 30C19 28.3575 20.3432 27 22.0321 27H25.9679ZM31 30C31 27.2444 28.7529 25 25.9679 25H22.0321C19.2472 25 17 27.2444 17 30C17 32.7556 19.2472 35 22.0321 35H25.9679C28.7529 35 31 32.7556 31 30Z" fill="#333333"/>
</svg>
